Numix-GalliumOS/64/actions/document-close.svg

<?xml version="1.0" encoding="UTF-8" standalone="no"?>
<svg
   xmlns:dc="http://purl.org/dc/elements/1.1/"
   xmlns:cc="http://creativecommons.org/ns#"
   xmlns:rdf="http://www.w3.org/1999/02/22-rdf-syntax-ns#"
   xmlns:svg="http://www.w3.org/2000/svg"
   xmlns="http://www.w3.org/2000/svg"
   xmlns:sodipodi="http://sodipodi.sourceforge.net/DTD/sodipodi-0.dtd"
   xmlns:inkscape="http://www.inkscape.org/namespaces/inkscape"
   width="64"
   height="64"
   viewBox="0 0 64 64"
   id="svg2"
   version="1.1"
   inkscape:version="0.91 r13725"
   sodipodi:docname="document-close.svg">
  <metadata
     id="metadata12">
    <rdf:RDF>
      <cc:Work
         rdf:about="">
        <dc:format>image/svg+xml</dc:format>
        <dc:type
           rdf:resource="http://purl.org/dc/dcmitype/StillImage" />
        <dc:title></dc:title>
      </cc:Work>
    </rdf:RDF>
  </metadata>
  <defs
     id="defs10" />
  <sodipodi:namedview
     pagecolor="#ffffff"
     bordercolor="#666666"
     borderopacity="1"
     objecttolerance="10"
     gridtolerance="10"
     guidetolerance="10"
     inkscape:pageopacity="0"
     inkscape:pageshadow="2"
     inkscape:window-width="1366"
     inkscape:window-height="704"
     id="namedview8"
     showgrid="false"
     inkscape:zoom="7.375"
     inkscape:cx="40.70643"
     inkscape:cy="26.576271"
     inkscape:window-x="0"
     inkscape:window-y="27"
     inkscape:window-maximized="1"
     inkscape:current-layer="svg2" />
  <path
     style="fill:#fff;fill-rule:evenodd"
     d="M 14.855469 0 L 49.144531 0 C 56 0 56 0 56 7.109375 L 56 56.890625 C 56 64 56 64 49.144531 64 L 14.855469 64 C 8 64 8 64 8 56.890625 L 8 7.109375 C 8 0 8 0 14.855469 0 Z "
     id="path4" />
  <path
     style="fill:#dc322f;fill-opacity:1"
     d="M 64,54.999999 54.999999,46 64,37.000001 54.999999,28 46,37.000001 37.000001,28 28,37.000001 37.000001,46 28,54.999999 37.000001,64 46,54.999999 54.999999,64 Z"
     id="path6"
     inkscape:connector-curvature="0" />
</svg>

<svg xmlns="http://www.w3.org/2000/svg" viewBox="0 0 64 64">
 <path d="M 14.855469 0 L 49.144531 0 C 56 0 56 0 56 7.109375 L 56 56.890625 C 56 64 56 64 49.144531 64 L 14.855469 64 C 8 64 8 64 8 56.890625 L 8 7.109375 C 8 0 8 0 14.855469 0 Z " style="fill:#fff;fill-rule:evenodd"/>
 <path d="m 64 55 -9 -9 9 -9 -9 -9 -9 9 -9 -9 -9 9 9 9 -9 9 9 9 9 -9 9 9" style="fill:#dc322f;fill-opacity:1"/>
</svg>
